X:4625
T:Newmarket Polka \#1
O:england
S:from fiddler Maire O'Keeffe
N:transcribed by Alan Ng
L:1/8
M:2/4
K:DMaj
e/2|:fd Ad|fd Ad|fd AF|{D}E2 E>e|fd Ad|fd Ad|fd/2B/2 AF|D2 D2:|
D/2|:FD FA|de f/2g/2f/2e/2|dB AF|{D}E2 E>E|FD FA|de f/2g/2f/2e/2|dB AF|D2 D2:|


